src/assets/filled/Camera.svg

<svg width="24" height="24" viewBox="0 0 24 24"  xmlns="http://www.w3.org/2000/svg">
<path d="M17.9999 6C17.3899 6 16.8299 5.65 16.5499 5.11L15.8299 3.66C15.3699 2.75 14.1699 2 13.1499 2H10.8599C9.82992 2 8.62992 2.75 8.16992 3.66L7.44992 5.11C7.16992 5.65 6.60992 6 5.99992 6C3.82992 6 2.10992 7.83 2.24992 9.99L2.76992 18.25C2.88992 20.31 3.99992 22 6.75992 22H17.2399C19.9999 22 21.0999 20.31 21.2299 18.25L21.7499 9.99C21.8899 7.83 20.1699 6 17.9999 6ZM10.4999 7.25H13.4999C13.9099 7.25 14.2499 7.59 14.2499 8C14.2499 8.41 13.9099 8.75 13.4999 8.75H10.4999C10.0899 8.75 9.74992 8.41 9.74992 8C9.74992 7.59 10.0899 7.25 10.4999 7.25ZM11.9999 18.12C10.1399 18.12 8.61992 16.61 8.61992 14.74C8.61992 12.87 10.1299 11.36 11.9999 11.36C13.8699 11.36 15.3799 12.87 15.3799 14.74C15.3799 16.61 13.8599 18.12 11.9999 18.12Z" />
</svg>

<?xml version="1.0" encoding="UTF-8"?>
<svg width="24" height="24" viewBox="0 0 24 24" xmlns="http://www.w3.org/2000/svg">
 <path d="m18 6c-0.61 0-1.17-0.35-1.45-0.89l-0.72-1.45c-0.46-0.91-1.66-1.66-2.68-1.66h-2.29c-1.03 0-2.23 0.75-2.69 1.66l-0.72 1.45c-0.28 0.54-0.84 0.89-1.45 0.89-2.17 0-3.89 1.83-3.75 3.99l0.52 8.26c0.12 2.06 1.23 3.75 3.99 3.75h10.48c2.76 0 3.86-1.69 3.99-3.75l0.52-8.26c0.14-2.16-1.58-3.99-3.75-3.99zm-7.5 1.25h3c0.41 0 0.75 0.34 0.75 0.75s-0.34 0.75-0.75 0.75h-3c-0.41 0-0.74998-0.34-0.74998-0.75s0.33998-0.75 0.74998-0.75zm1.5 10.87c-1.86 0-3.38-1.51-3.38-3.38s1.51-3.38 3.38-3.38 3.38 1.51 3.38 3.38-1.52 3.38-3.38 3.38z"/>
</svg>
